X:1
T:Title
%%score ( 1 2 ) { 3 | 4 }
L:1/8
Q:1/4=135
M:6/4
K:Ab
V:1 treble nm="Grand Piano, Soprano"
V:2 treble 
V:3 bass nm="Choir Pad, Becontree, LMD"
V:4 bass 
V:1
 [CE]2 [CE]4 [CA]2 [Ec]4 | [CA]2 B2 A2 [DF]2 [CE]4 | [CE]2 [B,E]4 [EB]2 [EB]4 | %3
w: By~William~James~Kirkpatrick,~1889 * * *|||
 [Ed]2 d2 c2 [EB]2 [Ec]4 | [CE]2 [CE]4 [CA]2 [Ec]4 | [CA]2 B2 A2 [DF]2 [CE]4 | %6
w: |||
 [EA]2 G2 F2 [EG]2 A2 G2 | [EA]2 [Ec]4 [DB]2 [CA]4 | [CA]2 [EB]4 [EB]2 [Ed]4 | %9
w: |||
 [DG]2 B2 A2 [DF]2 [CE]4 | E2 [Ed]4 [Ed]2 c3 B | [=DA]2 [EB]4 [Ec]2 [EB]4 | %12
w: |||
 [Ge]2 [Ae]4 [Ec]2 [Ec]4 | [EA]2 B2 A2 F2 [Fd]4 | [DF]2 [CE]4 [CA]2 [Ec]4 | %15
w: |||
 [DB]2 [CA]4 [DA]2 [CA]4- | [CA]6 z6 |] %17
w: ||
V:2
 x12 | z2 D4 z6 | x12 | z2 E4 z6 | x12 | z2 D4 z6 | z2 E4 z2 E4 | x12 | x12 | z2 C4 z6 | z6 z2 E4 | %11
 x12 | x12 | z2 F4 z6 | x12 | x12 | x12 |] %17
V:3
 A,2 A,4 A,2 A,4 | A,2 F,4 A,2 A,4 | A,2 G,4 G,2 G,4 | B,2 B,2 A,2 G,2 A,4 | A,2 A,4 A,2 A,4 | %5
 E,2 F,4 A,2 A,4 | C2 B,2 A,2 B,2 C2 B,2 | C2 A,4 G,2 A,4 | A,2 G,4 G,2 B,4 | E,2 E,4 A,2 A,4 | %10
 C2 B,4 B,2 A,3 B, | B,2 G,4 A,2 G,4 | B,2 C4 A,2 A,4 | A,2 A,4 A,2 A,4 | A,2 A,4 A,2 A,4 | %15
 G,E, E,4 E,2 E,4- | E,4 z2 z6 |] %17
V:4
 A,,2 A,,4 A,,2 A,,4 | A,,2 D,4 D,2 A,,4 | A,,2 E,4 E,2 E,4 | E,2 E,4 .E,6 | A,,2 A,,4 A,,2 A,,4 | %5
 A,,2 D,4 D,2 A,,4 | A,,2 E,4 E,2 E,4 | E,2 E,4 E,2 [A,,E,]4 | A,,2 E,4 E,2 E,4 | %9
 z2 A,,4 A,,2 A,,4 | A,2 G,4 .G,4 z G, | F,2 E,4 E,2 E,4 | E,2 A,4 A,,2 A,,4 | C,2 D,4 D,2 D,4 | %14
 D,2 E,4 E,2 E,4 | .E,2 A,,4 A,,2 A,,4- | A,,4 z2 z6 |] %17

